X: 3077
Q:"Strathspey."
M: C
L: 1/8
K: A
[|\
vA,>vCuE>uF E>A,C>E | A>Bc>e d>BB>c |\
a>ga>e f>ae>d | c>eB>e c<AAz |]\
c>ee>f e>Ac>A | c>e (ef/g/) a>ed>B |\
c>ee>f e>Ac>A |
c>ee>f e>Ac>A | c>e (ef/g/) a>ed>B |\
(3agf (3edc (3dcB (3AGF | E<A, d>B c<AAz |]


